X:2488
T:Flowers of the Forest
M:6/8
E:12
L:1/8
K:D
A3 A2 B|A B2 d2 e/f/|g2 f e2 d|B d2 A2 F|\
A3 A2 B|A B2 d>ef/g/ |f3 e2 d|d3-d3||*
=c3 c>e d/c/|B2 A B d2|A f2 e2 d|B d2 A2 B|\
=c3 c>e d/c/|B2 A B d2|A f2 e2 d|d3-d3||*
f a2 a2 a|b2 a g2 f|g2 f e2 d|B d2 A3|\
f a2 a2 a|b2 a g2 f|(4egfe e2 d|d3-d3|\
f a2 a2 a|b2 a g2 f|g2 f e2 d|B d2 A3|\
A3 A2 B|A B2 d>ef/g/ |f3 e2 d|d3-d3||**
